docs/img/svg/vk.svg

<svg xmlns="http://www.w3.org/2000/svg" preserveAspectRatio="xMidYMid" width="15" height="9" viewBox="0 0 15 9"><defs><style>.cls-1{fill:#fff;fill-rule:evenodd}</style></defs><path d="M14.378 7.29c-.446-.568-.972-1.052-1.469-1.567-.449-.464-.477-.733-.117-1.268.394-.585.817-1.147 1.214-1.729.371-.544.75-1.086.945-1.737.124-.414.015-.597-.386-.669a1.14 1.14 0 0 0-.211-.014L11.977.303c-.292-.004-.454.131-.558.406a16.3 16.3 0 0 1-.45 1.102c-.378.814-.8 1.6-1.392 2.266-.13.147-.274.332-.492.256-.273-.106-.353-.582-.349-.743L8.734.682C8.681.266 8.594.081 8.205 0L5.736.001c-.33 0-.495.135-.671.353-.102.126-.132.208.076.25.41.083.641.364.702.799.099.696.092 1.395.035 2.094a2.04 2.04 0 0 1-.126.598c-.119.3-.312.36-.565.176-.23-.167-.391-.402-.548-.638A14.304 14.304 0 0 1 3.189.784c-.112-.29-.304-.466-.594-.471a58.718 58.718 0 0 0-2.14 0C.026.322-.102.543.073.955.85 2.787 1.715 4.568 2.843 6.19c.579.832 1.245 1.567 2.104 2.088.974.59 2.023.768 3.127.713.517-.026.673-.168.696-.715.017-.373.057-.745.23-1.081.171-.33.43-.392.728-.187.149.103.274.233.393.371.291.337.572.685.874 1.011.379.409.828.651 1.392.601h2.185c.352-.024.534-.481.332-.898a4.516 4.516 0 0 0-.526-.803z" class="cls-1"/></svg>

<svg xmlns="http://www.w3.org/2000/svg" xmlns:xlink="http://www.w3.org/1999/xlink" preserveAspectRatio="xMidYMid" width="15" height="9" viewBox="0 0 15 9">
  <defs>
    <style>
      .cls-1 {
        fill: #fff;
        fill-rule: evenodd;
      }
    </style>
  </defs>
  <path d="M14.378,7.290 C13.932,6.722 13.406,6.238 12.909,5.723 C12.460,5.259 12.432,4.990 12.792,4.455 C13.186,3.870 13.609,3.308 14.006,2.726 C14.377,2.182 14.756,1.640 14.951,0.989 C15.075,0.575 14.966,0.392 14.565,0.320 C14.496,0.307 14.425,0.306 14.354,0.306 L11.977,0.303 C11.685,0.299 11.523,0.434 11.419,0.709 C11.279,1.081 11.135,1.452 10.969,1.811 C10.591,2.625 10.169,3.411 9.577,4.077 C9.447,4.224 9.303,4.409 9.085,4.333 C8.812,4.227 8.732,3.751 8.736,3.590 L8.734,0.682 C8.681,0.266 8.594,0.081 8.205,0.000 L5.736,0.001 C5.406,0.001 5.241,0.136 5.065,0.354 C4.963,0.480 4.933,0.562 5.141,0.604 C5.551,0.687 5.782,0.968 5.843,1.403 C5.942,2.099 5.935,2.798 5.878,3.497 C5.862,3.701 5.828,3.904 5.752,4.095 C5.633,4.395 5.440,4.455 5.187,4.271 C4.957,4.104 4.796,3.869 4.639,3.633 C4.046,2.746 3.574,1.789 3.189,0.784 C3.077,0.494 2.885,0.318 2.595,0.313 C1.882,0.301 1.169,0.299 0.455,0.313 C0.026,0.322 -0.102,0.543 0.073,0.955 C0.850,2.787 1.715,4.568 2.843,6.190 C3.422,7.022 4.088,7.757 4.947,8.278 C5.921,8.868 6.970,9.046 8.074,8.991 C8.591,8.965 8.747,8.823 8.770,8.276 C8.787,7.903 8.827,7.531 9.000,7.195 C9.171,6.865 9.430,6.803 9.728,7.008 C9.877,7.111 10.002,7.241 10.121,7.379 C10.412,7.716 10.693,8.064 10.995,8.390 C11.374,8.799 11.823,9.041 12.387,8.991 L14.572,8.991 C14.924,8.967 15.106,8.510 14.904,8.093 C14.762,7.802 14.576,7.542 14.378,7.290 Z" class="cls-1"/>
</svg>
